X:683
T:Breakdown 
C:Joe Buchanan's Scottish Tome - Page 212.1
I:212 1
R:Reel
Z:Carl Allison
L:1/8
M:4/4
K:A
"A"{efg}a2 AcBA | "A"E2 A2 AcBA | "Bm"F2 B2 BcBA | "E7"GABc defg |
"A"a2 A2 AcBA |"A" E2 A2 AcBA |"Bm" GABc "E7"defg |"A" a4 a4 :|
"A"A2 a2 A2 a2 |"A" A2 AB cB A2 |"E7" E2 e2 E2 e2 |"E7" E2 Bc dc B2 |
"A"A2 a2 A2 a2 |"A" A2 AB cB A2 |"E7" E2 B2 BcdB | A4 a4 :|
"A"c/e/e/e/ c/e/e/e/ "D"d/f/f/f/ d/f/f/f/ | "A"c/e/e/e/ c/e/e/e/ "E7"dB Be |
"A"c/e/e/e/ c/e/e/e/ "D"d/f/f/f/ d/f/f/f/ | "A"e/a/g/f/ "E7"e/d/c/B/ "A"Aa A2 |]

